X: 4
T: The Dawning Of The Day
R: barndance
M: 4/4
L: 1/8
K: Gmaj
|: GA |B2 B2 B2 AB | d2 d2 e2 dB | G3 B A3 F | G6 (3Bcd |
e3 d ef g2 | B>c BA G3 B | d2 B2 g2 B2 | A4- AA (3Bcd |
e3 d e2 g2 | B3 A G2 B2 | d3 B2 g2 B2 | A6 E/F/G/A/ |
B2 ^A B2 G/=A/B/c/ | d3 ^c/d/ e2 dB | G2 BA G3 G | G6 :|


Tune 1441	Setting 14823

